X:103
T: Lishui chuangong haozi  1.
N: C0131A
O: China,Hunan, Jinshi, Lixian
S: I, 549]
N: I: Yao Meizo hu he; II: di chang; III: gao chiang
N: Zu diesen Themen gibt es viele Melodien.
N: Vereinzelt Verzierungen.
R: Haozi, Chuangong haozi. Pingshui xingchuan shi chang]
M: 2/4
L: 1/16
K: F
Afd2d2c2 | A2dcA4 |
d6c2 | AcA2c4 |
d6c2 | AcA2c4 |
c4A2G2 | G4A4 |
c2Adc2cA | G2(3AGAF4
G6F2 | DFD2F4

@@@ Tune index: 6104
